!!!COM: Palestrina, Giovanni Perluigi da
!!!OPR: Salvum me fac
!!!OTL: Kyrie II
**kern	**kern	**kern	**kern	**kern
*Ibass	*Itenor	*Icalto	*Icant	*Icant
!Bassus	!Tenor	!Altus	!Cantus 2	!Cantus 1
*clefF4	*clefGv2	*clefG2	*clefG2	*clefG2
*k[b-]	*k[b-]	*k[b-]	*k[b-]	*k[b-]
*G:dor	*G:dor	*G:dor	*G:dor	*G:dor
*M4/2	*M4/2	*M4/2	*M4/2	*M4/2
=1	=1	=1	=1	=1
0r	1d	1r	0r	0r
.	2e	1g	.	.
.	[2g	.	.	.
=2	=2	=2	=2	=2
1r	2g]	2a	0r	0r
.	2f	1cc	.	.
1G	2e	.	.	.
.	2d	2b-	.	.
=3	=3	=3	=3	=3
2A	2f	1a	0r	0r
1c	4e	.	.	.
.	4d	.	.	.
.	4e	1g	.	.
.	4c	.	.	.
2B-	4d	.	.	.
.	4e	.	.	.
=4	=4	=4	=4	=4
2A	2f	2a	0r	1r
2G	2.g	2.b-	.	.
2B-	.	.	.	1g
.	4f	4a	.	.
2c	4e	[2g	.	.
.	4d	.	.	.
=5	=5	=5	=5	=5
1A	1c	2g]	1r	2a
.	.	2f#	.	1cc
1G	2d	1g	1dd	.
.	2G	.	.	2b-
=6	=6	=6	=6	=6
0r	2c	0r	2ee	2a
.	2e-	.	1gg	2g
.	1d	.	.	2b-
.	.	.	2ff	2a
=7	=7	=7	=7	=7
0r	1G	1r	2ee	4g
.	.	.	.	4a
.	.	.	2dd	4b-
.	.	.	.	4cc
.	1r	2r	2ff	2dd
.	.	2g	2gg	2b-
=8	=8	=8	=8	=8
0r	0r	2a	1ee	1cc
.	.	1cc	.	.
.	.	.	1dd	2g
.	.	2b-	.	2dd
=9	=9	=9	=9	=9
0r	0r	2a	2cc#	2ee
.	.	2d	2.dd	2.ff
.	.	2f	.	.
.	.	.	4cc	4ee
.	.	2g	2b-	[2dd
=10	=10	=10	=10	=10
1A	1r	1e	1a	2dd]
.	.	.	.	2cc#
2B-	1d	1d	1f	2dd
[2d	.	.	.	2ff
=11	=11	=11	=11	=11
2d]	2e	2r	2.g	1ee
2c	1g	2e	.	.
.	.	.	4a	.
2B-	.	2g	2b-	1r
2A	2f	[2a	2cc	.
=12	=12	=12	=12	=12
2c	2e	4a]	1a	2r
.	.	4g	.	.
2d	2d	4f	.	2a
.	.	4e	.	.
1B-	2f	1d	1r	2b-
.	2g	.	.	[2dd
=13	=13	=13	=13	=13
1A	1e	2.a	1r	2dd]
.	.	.	.	2cc
.	.	4g	.	.
1r	2d	4f	2r	2b-
.	.	4e	.	.
.	2d	2f	2dd	2a
=14	=14	=14	=14	=14
0r	2c	2.g	2ee	2cc
.	4G	.	1gg	2dd
.	4A	8f	.	.
.	.	8e	.	.
.	4B-	1d	.	2b-
.	4c	.	.	.
.	2d	.	2ff	4a
.	.	.	.	4g
=15	=15	=15	=15	=15
0r	2A	2c#	2ee	[0a
.	1d	2d	2dd	.
.	.	1A	2ff	.
.	2c	.	[2ee	.
=16	=16	=16	=16	=16
0r	1f	2r	4ee]	1a]
.	.	.	4dd	.
.	.	2d	1dd	.
.	1e	2e	.	1g
.	.	[2g	2cc	.
=17	=17	=17	=17	=17
1D	1d	2g]	2b-	1dd
.	.	2f	2a	.
2E	1G	2e	2r	2cc
[2G	.	[2d	2g	[2b-
=18	=18	=18	=18	=18
2G]	2r	2d]	2b-	2b-]
2F	2A	2f	1cc	2a
2E	2c	2g	.	2g
2D	2d	[2f	2b-	2dd
=19	=19	=19	=19	=19
2F	2c	4f]	2a	2r
.	.	4e	.	.
2G	4B-	1d	4g	2dd
.	4A	.	4f	.
1E	2.G	.	1g	2ee
.	.	2c#	.	[2gg
.	4A	.	.	.
=20	=20	=20	=20	=20
1D	2B-	4d	2r	2gg]
.	.	4e	.	.
.	1A	4f	2dd	2ff
.	.	4g	.	.
1r	.	[1a	2cc	2ee
.	[2d	.	[2ff	2dd
=21	=21	=21	=21	=21
0r	2d]	2a]	4ff]	2ff
.	.	.	4ee	.
.	2G	2b-	1dd	2gg
.	1A	2.a	.	1ee
.	.	.	2cc#	.
.	.	4g	.	.
=22	=22	=22	=22	=22
2r	1B-	2f	2dd	1dd
2G	.	2g	2b-	.
2A	1c	1e	2a	1r
[2c	.	.	2g	.
=23	=23	=23	=23	=23
2c]	1G	2d	1dd	0r
2B-	.	2d	.	.
2A	2r	2e	2cc	.
2G	2d	[2g	4b-	.
.	.	.	4a	.
=24	=24	=24	=24	=24
2B-	2d	4g]	1g	2r
.	.	4f	.	.
2c	1g	4e	.	2g
.	.	4d	.	.
1A	.	1c	1r	2a
.	2f	.	.	[2cc
=25	=25	=25	=25	=25
1G	2e	1g	1r	2cc]
.	2d	.	.	2b-
1r	2f	2a	2r	2a
.	[2g	2b-	2dd	2g
=26	=26	=26	=26	=26
1r	2g]	1g	2dd	2b-
.	2c	.	1gg	2cc
1D	1d	1r	.	1a
.	.	.	2ff	.
=27	=27	=27	=27	=27
2E	1G	2r	2ee	2g
1G	.	1d	2dd	1b-
.	2B-	.	2g	.
2F	[2c	2f	2cc	2a
=28	=28	=28	=28	=28
2E	2c]	4g	2cc	2g
.	.	4e	.	.
2D	2B-	4f	1ff	2dd
.	.	4g	.	.
2F	2A	2a	.	2cc
2G	2G	[2b-	[2dd	4b-
.	.	.	.	4a
=29	=29	=29	=29	=29
1E-	2B-	4b-]	2dd]	1g
.	.	4a	.	.
.	2c	1g	2cc	.
1D	1A	.	1dd	2r
.	.	2f#	.	2a
=30	=30	=30	=30	=30
1.G	2G	[0g	2r	2b-
.	2G	.	2b-	1dd
.	2B-	.	2dd	.
2C	2c	.	[2ee-	2cc
=31	=31	=31	=31	=31
2E-	1G	1g_	2ee-]	2.b-
2BB-	.	.	2dd	.
.	.	.	.	4a
1C	1e-	1g_	1cc	2g
.	.	.	.	[2cc
=32	=32	=32	=32	=32
1G	1d	0g]	1dd	2cc]
.	.	.	.	2b
1C	1c	.	1ee-	1cc
=33	=33	=33	=33	=33
[0G	[0d	[0g	[0dd	[0b
=34	=34	=34	=34	=34
0G]	0d]	0g]	0dd]	0b]
==	==	==	==	==
*-	*-	*-	*-	*-
!!!CDT: 1525/^1526/-1594/2/2
!!!OCY: Italia
!!!AGN: Mass (Parody)
!!!AST: renaissance, vocal
!!!ASW: Motet 1538 (Jacquet)
!!!PWK: Masses, Book 2
!!!RNB: Cadence finals: D
!!!YOR: Le Opere Complete, v. 4, p. 126
!!!YOO: Rome, Italy: Fratelli Scalera
!!!END: 1992//
!!!EED: John Miller
!!!YEC: Copyright 2000, John Miller
!!!YEN: United States of America
!!!YEM: Rights to all derivative electronic formats reserved.
!!!YEM: Refer to licensing agreement for further details.
!!!YEM: This file must be accompanied by the licensing agreement.
!!!YEM: A copy of the licensing agreement may be found at http://www.music-cog.ohio-state.edu/HumdrumDatabases/Palestrina/license.txt
!!!EMD: converted to Humdrum by Bret Aarden
